X: 8998
T: Cyril O'Brien's
R: polka
M: 2/4
K: Amixolydian
|:ce ce|ef g2|fd de|fe e2|
ce ce|ef g2|fd ec|1 A2 A2:|2 A2 Af||
|:a2 ab|ef g2|fd de|fe e>g|
a2 ab|ef g2|fd ec|1 A2 Af:|2 A2 A2||

